!!!COM: Martinů, Bohuslav (Jan)
!!!OTL: Les Madrigaux (Madrigals), Four pieces for Oboe, Clarinet and Bassoon
!!!OMV: No. 3: Poco allegretto
!!!example: 482
!!!work: Mau-54
**kern	**dynam	**kern	**dynam	**kern	**dynam
*part3	*part3	*part2	*part2	*part1	*part1
*staff3	*	*staff2	*	*staff1	*
*I"Violoncello	*	*I"Violin II	*	*I"Violin I	*
*I'Vc.	*	*I'Vln. II	*	*I'Vln. I	*
*clefF4	*	*clefG2	*	*clefG2	*
*k[]	*	*k[]	*	*k[]	*
*C:	*	*C:	*	*C:	*
*M3/8	*	*M3/8	*	*M3/8	*
*MM121	*	*MM121	*	*MM121	*
=1	=1	=1	=1	=1	=1
4.r	.	4.r	.	4ccT	p
.	.	.	.	8a'	.
=2	=2	=2	=2	=2	=2
*M4/8	*	*M4/8	*	*M4/8	*
2r	.	2r	.	4ccT	.
.	.	.	.	8a'L	.
.	.	.	.	8cc'J	.
=3	=3	=3	=3	=3	=3
*M3/8	*	*M3/8	*	*M3/8	*
4.r	.	8r	.	4ccT	.
.	.	(8qg/	< p	.	.
.	.	8f'L)	.	.	.
.	.	8g'J	[[	8a'	.
=4	=4	=4	=4	=4	=4
*M4/8	*	*M4/8	*	*M4/8	*
2r	.	(4gT	>	4ccT	.
.	.	8f'L)	.	8a'L	.
.	.	(8qa/	]	.	.
.	.	8g'J)	.	8cc'J	.
=5	=5	=5	=5	=5	=5
*M4/4	*	*M4/4	*	*M4/4	*
4r	.	8r	.	8r	.
.	.	8r	.	4ccT	.
.	.	(8qg/	<	.	.
8C'L	<	8f'L)	.	.	.
8B'J	.	8g'J	.	8a	.
8D'L	[	(4gT	[ >	4ccT	<
(8qd/	.	.	.	.	.
8c'J)	.	.	.	.	.
8r	.	8f'L)	.	8a'L	.
.	.	(8qa/	]	.	.
8C'	<	8g'J)	.	8ff'J	[
=6	=6	=6	=6	=6	=6
8B'L	.	8r	.	4.ffT	.
.	.	(8qg/	<	.	.
8D'J	[	8f')	.	.	.
(8qd/	.	.	.	.	.
8c')	.	8g'	.	.	.
8r	.	(4.gT	[ >	8cc'	.
8r	.	.	.	(4ffT	<
8C'	<	.	.	.	.
8B'L	.	8f'L)	]	8ee'L)	.
.	.	(8qa/	.	.	.
8D'J	[	8g'J)	.	8dd'J	[
=7	=7	=7	=7	=7	=7
(8qd/	.	.	.	.	.
8c')	.	8r	.	4dd~	.
.	.	(8qg/	<	.	.
8r	.	8f')	.	.	.
8C'L	<	8g'	.	4.ee~	.
8B'J	.	(4.gT	[ >	.	.
8D'L	[	.	.	.	.
(8qd/	.	.	.	.	.
8c'J)	.	.	.	8r	.
8r	.	8f'L)	]	(8ffTL	.
.	.	(8qa/	.	.	.
8r	.	8g'J)	.	8ee'J)	.
=	=	=	=	=	=
*-	*-	*-	*-	*-	*-
!!!system-decoration: [(s1,s2,s3)]
!!!CDT: 1890/12/08-1959/08/28
!!!CBL: Polička, Bohemia
!!!CDL: Liestal, Switzerland
!!!CNT: Czech
!!!AGN: Instrumental; Chamber
!!!MCN:
!!!MDT: 1905/04/21
!!!MGN: Au Trio d'Anches de Paris
!!!MLC: Paris, France
!!!MPD: 1938
!!!MPN:
!!!ODT: 1937
!!!PDT: 1951
!!!excerpt-start-measure: 1
!!!excerpt-end-measure: 7
!!!excerpt-start-time: 0:00
!!!excerpt-end-time: 0:12
!!!EEV: 2020/01/27
!!!ONB: Converted from MusicXML on 2020/01/27
